T: Flying To The Fleadh
M: 9/8
L: 1/8
K: Bmin
~d3 Bcd cBA | ~B3 cFd efg | ~f3 efg fed | ~e3 aed cde |
ded Bcd cBA | ~B3 cFd efg | ~f3 efg fed |1 edc aec ~B3 :|2 edc aec d2e ||
|: fdA dfa fed | ~e3 aed cBA | ~B3 cFd efg | ~f3 cAF Ace |
fdA dfa fed | ~e3 aed cBA | BFd cFe dGf |1 edc aec d2e :|2 edc aec B2c ||
|: dFF cFF dcB | cEE BEE cde | dFF cFF def | edc aec B2c |
dFF cFF dcB | cEE BEE cBA | BFd cFe dGf | edc aec ~B3 ||
